src/assets/in-depo/End.call.svg

<?xml version="1.0" encoding="UTF-8"?>
<svg width="24px" height="24px" viewBox="0 0 24 24" version="1.1" xmlns="http://www.w3.org/2000/svg" xmlns:xlink="http://www.w3.org/1999/xlink">
    <title>Foundations/Icons/End.call@1x</title>
    <g id="💡-Icons" stroke="none" stroke-width="1" fill="none" fill-rule="evenodd">
        <g id="Foundations/Icons/End.call" fill="#14232E">
            <path d="M11.7272727,12.4027305 C12.028519,12.4027305 12.2727273,12.6469388 12.2727273,12.9481851 L12.2727273,12.9481851 L12.2727273,15.9936396 L12.9636364,15.3754578 C13.189571,15.174627 13.5355328,15.1949777 13.7363636,15.4209123 C13.9371945,15.646847 13.9168438,15.9928088 13.6909091,16.1936396 L13.6909091,16.1936396 L12.0909091,17.6118214 C11.9905318,17.7003495 11.8611097,17.7488828 11.7272727,17.7481925 C11.5937337,17.747244 11.4648667,17.6989188 11.3636364,17.6118214 L11.3636364,17.6118214 L9.76363636,16.1936396 C9.53770169,15.9928088 9.517351,15.646847 9.71818182,15.4209123 C9.91901264,15.1949777 10.2649744,15.174627 10.4909091,15.3754578 L10.4909091,15.3754578 L11.1818182,15.9936396 L11.1818182,12.9481851 C11.1818182,12.6469388 11.4260265,12.4027305 11.7272727,12.4027305 Z M5.46945715,6.00003458 L18.6831308,6.00618333 C19.8260567,6.00159602 20.9234959,6.45359213 21.7316731,7.2617693 C22.5398503,8.06994647 22.9918464,9.16738566 22.9872591,10.3103116 L22.9872591,10.3103116 L22.962664,12.1918305 C22.9468735,12.9900179 22.3035967,13.6332947 21.5054092,13.6490853 L21.5054092,13.6490853 L16.7893144,13.6429366 C15.9825014,13.6395608 15.3292866,12.986346 15.3259108,12.179533 L15.3259108,12.179533 L15.3259108,10.7653194 L15.3187987,10.6891995 C15.2822812,10.4916639 15.1095576,10.3419429 14.9016467,10.3410553 L14.9016467,10.3410553 L9.24479249,10.3410553 C9.01089278,10.3420539 8.82152697,10.5314197 8.82052842,10.7653194 L8.82052842,10.7653194 L8.82052842,12.179533 C8.82179743,12.5677311 8.66665282,12.9400782 8.3901156,13.2125237 L8.3901156,13.2125237 L8.28342979,13.3104665 C8.0243356,13.5254032 7.6967982,13.644047 7.35712482,13.6429366 L7.35712482,13.6429366 L2.64103003,13.6490853 C1.83325413,13.6464722 1.1753112,12.9994495 1.15918017,12.1918305 L1.15918017,12.1918305 L1.16532892,10.3041628 C1.16074161,9.16123691 1.61273772,8.06379771 2.42091489,7.25562054 C3.22909205,6.44744338 4.32653125,5.99544727 5.46945715,6.00003458 L5.46945715,6.00003458 Z M18.6831308,7.03917411 L5.46945715,7.04532286 C3.68844807,7.08197488 2.25341797,8.51700497 2.21676596,10.2980141 L2.21676596,10.2980141 L2.21676596,12.179533 C2.21776451,12.4134327 2.40713031,12.6027985 2.64103003,12.603797 L2.64103003,12.603797 L7.35712482,12.5976483 C7.46953427,12.6028656 7.57894194,12.5604922 7.658513,12.4809211 C7.73808405,12.4013501 7.78045746,12.2919424 7.77524014,12.179533 L7.77524014,12.179533 L7.78138889,11.2879636 L4.5286977,11.2818148 C4.38929304,11.2844488 4.25482053,11.230231 4.15622895,11.1316394 C4.05763738,11.0330478 4.0034195,10.8985753 4.00605355,10.7591707 C4.00889451,10.4751032 4.2384815,10.2455162 4.52254894,10.2426753 L4.52254894,10.2426753 L7.87976896,10.2426753 C8.0935553,9.67386115 8.63713053,9.29678644 9.24479249,9.29576706 L9.24479249,9.29576706 L14.9016467,9.29576706 C15.5093087,9.29678644 16.0528839,9.67386115 16.2666703,10.2426753 L16.2666703,10.2426753 L19.6115928,10.2549728 C19.9002412,10.2549728 20.1342369,10.4889685 20.1342369,10.7776169 C20.1342369,11.0662653 19.9002412,11.3002611 19.6115928,11.3002611 L19.6115928,11.3002611 L16.3711991,11.2818148 L16.3711991,12.179533 C16.3710065,12.290483 16.4149959,12.3969442 16.4934495,12.4753978 C16.5719032,12.5538515 16.6783644,12.5978409 16.7893144,12.5976483 L16.7893144,12.5976483 L21.5054092,12.603797 C21.618454,12.599954 21.7259534,12.5538828 21.8066982,12.4746732 C21.8844474,12.3959862 21.9285473,12.2901463 21.9296733,12.179533 L21.9296733,12.179533 L21.935822,10.2918653 C21.9331013,9.42856948 21.5881545,8.60158163 20.9766309,7.99221651 C20.3699412,7.38120756 19.5441785,7.03806221 18.6831308,7.03917411 L18.6831308,7.03917411 Z" id="Combined-Shape"></path>
        </g>
    </g>
</svg>

<svg width="24" height="24" viewBox="0 0 24 24" xmlns="http://www.w3.org/2000/svg"><path d="M11.727 12.403c.302 0 .546.244.546.545v3.046l.69-.619a.547.547 0 01.728.819l-1.6 1.418a.545.545 0 01-.364.136.564.564 0 01-.363-.136l-1.6-1.418a.547.547 0 01.727-.819l.69.619v-3.046c0-.301.245-.545.546-.545zM5.47 6l13.214.006a4.287 4.287 0 014.304 4.304l-.024 1.882a1.487 1.487 0 01-1.458 1.457l-4.716-.006a1.47 1.47 0 01-1.463-1.463v-1.415l-.007-.076a.426.426 0 00-.417-.348H9.245a.426.426 0 00-.424.424v1.415c0 .388-.154.76-.43 1.033l-.108.097c-.259.215-.586.334-.926.333l-4.716.006a1.487 1.487 0 01-1.482-1.457l.006-1.888A4.287 4.287 0 015.47 6zm13.214 1.04L5.47 7.044a3.322 3.322 0 00-3.252 3.253v1.882c0 .233.19.423.424.424l4.716-.006a.4.4 0 00.418-.418l.006-.892-3.252-.006a.513.513 0 01-.523-.523.522.522 0 01.517-.516H7.88a1.46 1.46 0 011.365-.947h5.657a1.46 1.46 0 011.365.947l3.345.012a.523.523 0 110 1.045l-3.24-.018v.898a.417.417 0 00.417.418l4.716.006a.452.452 0 00.302-.13.426.426 0 00.123-.294l.006-1.888a3.261 3.261 0 00-.96-2.3 3.226 3.226 0 00-2.293-.953z" fill="#14232E" fill-rule="evenodd"/></svg>
